X:1
T:Orono, CM
T:Orono, CM
T:Karl Pomeroy Harrington, 1905
T:Public Domain Courtesy of the Cyber Hymnal™
C:Karl Pomeroy Harrington, 1905
Z:Public Domain
Z:Courtesy of the Cyber Hymnal™
%%score ( 1 2 ) ( 3 4 )
L:1/8
Q:1/4=112
M:4/4
K:G
V:1 treble 
V:2 treble 
V:3 bass 
V:4 bass 
V:1
 [DB]2 | [^C^A]2 [DB]2 [E^c]2 [DB]2 | [Ed]2 [Ec]2 E2 [Ec]2 | [FB]2 [FA]2 G2 [DA]2 | [DB]6 [Gd]2 | %5
 [Gd]2 [A^d]2 [^Ge]2 [EB]2 | [=Fd]2 [Ec]2 E2 [Ec]2 | [Fc]2 [GB]2 B3 z x | G6 |] %9
V:2
 x2 | x8 | x8 | x8 | x8 | x8 | x8 | x4 E2 (F2 A) | G6 |] %9
V:3
 G,2 | G,2 G,2 G,2 G,2 | [C,^G,]2 [C,A,]2 [C,C]2 [C,A,]2 | [D,C]2 [D,C]2 [D,B,]2 [D,F,]2 | %4
 [G,,G,]6 [G,B,]2 | [G,B,]2 [=F,B,]2 [E,B,]2 [E,^G,]2 | [A,,^G,]2 [A,,A,]2 [B,,D]2 [C,C]2 | %7
 [D,A,]2 [D,B,]2 [D,C]2 [D,C]2 x | [G,B,]6 |] %9
V:4
 G,2 | x8 | x8 | x8 | x8 | x8 | x8 | x9 | x6 |] %9

